assets/images/icons/services_sofa.svg

<svg width="86" height="67" viewBox="0 0 86 67" fill="none" xmlns="http://www.w3.org/2000/svg">
<path d="M23.9725 1.63989C14.5998 1.63989 6.93371 9.25224 6.93371 18.6249V22.5486C2.99652 23.543 0.0537109 27.1375 0.0537109 31.3636C0.0537109 35.1732 2.51277 38.3108 5.85871 39.6411L10.0512 50.5524L10.105 50.7136H10.1587C10.5753 52.0036 11.2942 53.0249 12.1475 53.8311L9.13746 59.9049C7.9348 62.3035 8.88887 65.2597 11.2875 66.4624C11.9795 66.8118 12.7521 66.9999 13.4912 66.9999C15.2851 66.9999 17.0454 66.0122 17.8987 64.3124L21.6612 56.6799H64.3387L68.1012 64.3124C68.9545 66.0122 70.7148 66.9999 72.5087 66.9999C73.2478 66.9999 74.0204 66.8118 74.7125 66.4624C77.1111 65.2597 78.0651 62.3035 76.8625 59.9049L73.8525 53.8311C74.7057 53.0249 75.4247 52.0036 75.8412 50.7136H75.895L75.9487 50.5524L80.1412 39.6411C83.4872 38.3108 85.9462 35.1732 85.9462 31.3636C85.9462 27.1375 83.0034 23.543 79.0662 22.5486V18.6249C79.0662 9.25224 71.4001 1.63989 62.0275 1.63989H23.9725ZM23.9725 5.07989H62.0275C69.539 5.07989 75.6262 11.1133 75.6262 18.6249V22.3874C72.3475 22.851 69.6465 25.0816 68.4775 28.0849H68.4237L65.6287 34.4811C65.4003 34.4072 65.2659 34.3535 64.9837 34.2661C63.687 33.8765 61.8528 33.3658 59.6625 32.8686C55.2751 31.8743 49.4029 30.8799 43.215 30.8799C37.027 30.8799 31.0406 31.8675 26.5525 32.8686C24.3084 33.3658 22.407 33.8697 21.07 34.2661C20.7676 34.3535 20.6131 34.4072 20.3712 34.4811L17.7375 28.5686H17.6837C16.6356 25.3235 13.8204 22.8779 10.3737 22.3874V18.6249C10.3737 11.1133 16.4609 5.07989 23.9725 5.07989ZM9.13746 25.7199C11.6973 25.7199 13.8271 27.413 14.5125 29.7511V29.8586L14.5662 29.9661L17.8987 37.3299L18.705 39.1036L20.1562 38.1899L20.3175 38.0824C20.3443 38.0622 20.3175 38.116 20.3712 38.0824C20.4384 38.0555 20.4921 38.0622 20.5862 38.0286C20.9289 37.9144 21.4059 37.733 22.0375 37.5449C23.3073 37.1754 25.1415 36.6849 27.305 36.2011C31.6251 35.2404 37.3965 34.3199 43.215 34.3199C49.0334 34.3199 54.6973 35.2471 58.91 36.2011C61.0129 36.6782 62.7397 37.1754 63.9625 37.5449C64.5739 37.733 65.0845 37.8607 65.4137 37.9749C65.575 38.0286 65.6623 38.1093 65.7362 38.1361H65.79L67.295 39.0499L68.1012 37.2761L71.595 29.4824V29.4286L71.6487 29.3749C72.4482 27.2383 74.437 25.7199 76.8625 25.7199C79.9867 25.7199 82.5062 28.2394 82.5062 31.3636C82.5062 33.9571 80.7459 36.0802 78.3675 36.7386L77.5075 36.9536L77.2387 37.7599L72.67 49.4774V49.5311L72.6162 49.5849C72.1123 51.3385 70.6275 52.2455 68.9612 52.7561C67.5301 53.1996 66.3947 53.2399 66.0587 53.2399C65.6153 53.0451 65.1047 53.0451 64.6612 53.2399H21.285C20.8684 53.0719 20.4115 53.0719 19.995 53.2399C19.7128 53.2399 18.5168 53.213 17.0387 52.7561C15.3725 52.2455 13.8876 51.3385 13.3837 49.5849L13.33 49.5311V49.4236L8.76121 37.7599L8.49246 36.9536L7.63246 36.7386C5.2473 36.0802 3.49371 33.9571 3.49371 31.3636C3.49371 28.2394 6.01324 25.7199 9.13746 25.7199ZM15.1037 55.6586C15.4061 55.7796 15.7286 55.9476 16.0175 56.0349C16.7095 56.2499 17.3545 56.3708 17.9525 56.4649L14.7812 62.7536C14.5192 63.2777 14.0287 63.5599 13.4912 63.5599C13.2762 63.5599 13.0612 63.5061 12.8462 63.3986C12.1071 63.0291 11.8317 62.2027 12.2012 61.4636L15.1037 55.6586ZM70.8962 55.6586L73.7987 61.4636C74.1682 62.2027 73.8928 63.0291 73.1537 63.3986C72.9387 63.5061 72.7237 63.5599 72.5087 63.5599C71.9712 63.5599 71.4807 63.2844 71.2187 62.7536L68.0475 56.4649C68.6454 56.3708 69.2904 56.2499 69.9825 56.0349C70.2714 55.9476 70.5939 55.7796 70.8962 55.6586Z" fill="#390303" stroke="#390303" stroke-width="1.72"/>
</svg>

<svg width="86" height="67" fill="none" xmlns="http://www.w3.org/2000/svg"><path d="M23.973 1.64c-9.373 0-17.04 7.612-17.04 16.985v3.924c-3.936.994-6.88 4.588-6.88 8.815 0 3.81 2.46 6.947 5.806 8.277l4.192 10.911.054.162h.054a7.363 7.363 0 0 0 1.989 3.117l-3.01 6.074c-1.203 2.398-.25 5.355 2.15 6.557.691.35 1.464.538 2.203.538 1.794 0 3.554-.988 4.408-2.688l3.762-7.632H64.34l3.762 7.632c.853 1.7 2.614 2.688 4.408 2.688.739 0 1.511-.188 2.204-.538 2.398-1.202 3.352-4.159 2.15-6.557l-3.01-6.074a7.363 7.363 0 0 0 1.988-3.117h.054l.054-.162 4.192-10.91c3.346-1.331 5.805-4.469 5.805-8.278 0-4.227-2.943-7.821-6.88-8.815v-3.924c0-9.373-7.666-16.985-17.038-16.985H23.972Zm0 3.44h38.055c7.511 0 13.598 6.033 13.598 13.545v3.762c-3.279.464-5.98 2.695-7.148 5.698h-.054l-2.795 6.396c-.229-.074-.363-.128-.645-.215-1.297-.39-3.131-.9-5.321-1.397-4.388-.995-10.26-1.99-16.448-1.99-6.188 0-12.174.988-16.663 1.99a83.242 83.242 0 0 0-5.482 1.397c-.302.087-.457.141-.699.215l-2.633-5.912h-.054c-1.048-3.245-3.864-5.691-7.31-6.182v-3.762c0-7.512 6.087-13.545 13.598-13.545ZM9.136 25.72c2.56 0 4.69 1.693 5.375 4.031v.108l.054.107L17.9 37.33l.806 1.774 1.451-.914.162-.108c.026-.02 0 .034.053 0 .067-.026.121-.02.215-.053.343-.115.82-.296 1.452-.484 1.27-.37 3.104-.86 5.267-1.344 4.32-.96 10.092-1.881 15.91-1.881s11.482.927 15.695 1.881c2.103.477 3.83.974 5.053 1.344.61.188 1.122.316 1.45.43.162.054.25.134.323.161h.054l1.505.914.806-1.774 3.494-7.794v-.053l.054-.054c.8-2.137 2.788-3.655 5.213-3.655a5.634 5.634 0 0 1 5.644 5.644c0 2.593-1.76 4.716-4.138 5.375l-.86.215-.27.806-4.568 11.717v.054l-.054.054c-.504 1.754-1.989 2.66-3.655 3.171-1.43.444-2.566.484-2.902.484a1.744 1.744 0 0 0-1.398 0H21.285a1.714 1.714 0 0 0-1.29 0c-.282 0-1.478-.027-2.956-.484-1.667-.51-3.151-1.417-3.655-3.171l-.054-.054v-.107L8.761 37.76l-.269-.806-.86-.215c-2.385-.659-4.138-2.782-4.138-5.375a5.634 5.634 0 0 1 5.643-5.644Zm5.967 29.939c.302.12.625.289.913.376.692.215 1.338.336 1.936.43l-3.172 6.289a1.417 1.417 0 0 1-1.935.645c-.739-.37-1.014-1.196-.645-1.935l2.903-5.805Zm55.792 0 2.903 5.805c.37.739.094 1.565-.645 1.935-.215.107-.43.16-.645.16a1.405 1.405 0 0 1-1.29-.805l-3.171-6.29a13.413 13.413 0 0 0 1.934-.43c.29-.086.612-.254.914-.375Z" fill="#390303" stroke="#390303" stroke-width="1.72"/></svg>
